X: 4
T: Rickett's
R: hornpipe
M: 4/4
L: 1/8
K: Fmaj
f>c- cf/e/|dg/f/ ed/c/ | d>c-cB/A/|Gc/B/ AG/F/|f>c- cf/e/|dg/f/ ed/c/ | dc-c=B | c2 z A|B/c/ d/e/ f>f | g/a/ b/a/ g>f | gf fe | f2 z A |B/c/ d/e/ f>f | g/a/ b/a/ g>f | gf fe | f3 z ||


Tune 272	Setting 13011

